X: 21091
T: SECOND STAR HORNPIPE
C: By G. Tate
R: hornpipe
B: K\"ohler's Violin Repository, v.2, 1885 p.109 #1
F: http://www.archive.org/details/klersviolinrepos02rugg
N: The 2nd part has a begin-repeat but no end-repeat.
Z: 2012 John Chambers <jc:trillian.mit.edu>
M: C|
L: 1/8
K: Bb
(uD>E) |\
(F>B)d>c (B>A)G>F | (E>G)c>d (e>d)c>B | (A>c)a>g (f>g)e>f | d>ec>d B>cA>B |
(F>B)d>c (B>A)G>F | (E>G)c>d (e>d)c>B | A>(fe>c) A>FE>C | B,2B2 B2 :|
|: (ufga) |\
b2(DF) Bdfb | g2(EG) Begb | f2(CE) Acef | d2(B,D) FBdf |
b2(DF) Bdfb | g2(EG) Begb | (a>g)f=e _e>dc>B | B2b2 B2 |]

%%sep 2 1 500

